X:1
T: Good-bye, Sweetheart -- Reel
R: reel
M: 2/4
L: 1/16
B: Ryan's Mammoth Collection
Z: Contributed by Ray Davies,  ray:davies99.freeserve.co.uk
K: C
vecgc acgc|ecgc Bcdf|ecgc acgc|Bcdf ec~c2|
ecgc acgc|ecgc Bcdf|eccB cBAG|ABcd ec~c2::
GcBc Gc~c2|GcBc dAA2|GcBc GcEc|efgf ec~c2|
GcEc GcEc|Gcec Bcdg|afge fdec|efgf ecc2:|
